img/st/aktifitas-icon-2.svg

<svg width="23" height="28" viewBox="0 0 23 28" fill="none" xmlns="http://www.w3.org/2000/svg">
<path d="M19.0132 8.63173L22.3684 4.06858C22.5151 3.86918 22.6043 3.63208 22.6263 3.38384C22.6482 3.1356 22.602 2.88604 22.4927 2.6631C22.3834 2.44017 22.2154 2.25269 22.0076 2.12165C21.7997 1.99061 21.5602 1.92121 21.3158 1.92121H5.52634C5.52634 1.56526 5.38771 1.22389 5.14095 0.972195C4.8942 0.720501 4.55952 0.579102 4.21055 0.579102C3.86158 0.579102 3.52691 0.720501 3.28015 0.972195C3.03339 1.22389 2.89476 1.56526 2.89476 1.92121V24.737H1.57897C1.23 24.737 0.895328 24.8784 0.64857 25.1301C0.401811 25.3818 0.263184 25.7232 0.263184 26.0791C0.263184 26.4351 0.401811 26.7764 0.64857 27.0281C0.895328 27.2798 1.23 27.4212 1.57897 27.4212H6.84213C7.1911 27.4212 7.52577 27.2798 7.77253 27.0281C8.01929 26.7764 8.15792 26.4351 8.15792 26.0791C8.15792 25.7232 8.01929 25.3818 7.77253 25.1301C7.52577 24.8784 7.1911 24.737 6.84213 24.737H5.52634V15.3423H21.3158C21.5602 15.3423 21.7997 15.2729 22.0076 15.1418C22.2154 15.0108 22.3834 14.8233 22.4927 14.6004C22.602 14.3774 22.6482 14.1279 22.6263 13.8796C22.6043 13.6314 22.5151 13.3943 22.3684 13.1949L19.0132 8.63173ZM16.3158 9.437L18.6842 12.658H5.52634V4.60542H18.6842L16.3158 7.82647C16.1448 8.0587 16.0523 8.34129 16.0523 8.63173C16.0523 8.92218 16.1448 9.20477 16.3158 9.437Z" fill="#FF0025"/>
</svg>

<?xml version="1.0" encoding="utf-8"?>
<!-- Generator: Adobe Illustrator 24.0.0, SVG Export Plug-In . SVG Version: 6.00 Build 0)  -->
<svg version="1.1" id="Layer_1" xmlns="http://www.w3.org/2000/svg" xmlns:xlink="http://www.w3.org/1999/xlink" x="0px" y="0px"
	 viewBox="0 0 23 28" style="enable-background:new 0 0 23 28;" xml:space="preserve">
<path d="M19,8.6l3.4-4.6c0.1-0.2,0.2-0.4,0.3-0.7c0-0.2,0-0.5-0.1-0.7c-0.1-0.2-0.3-0.4-0.5-0.5c-0.2-0.1-0.4-0.2-0.7-0.2H5.5
	c0-0.4-0.1-0.7-0.4-0.9C4.9,0.7,4.6,0.6,4.2,0.6S3.5,0.7,3.3,1C3,1.2,2.9,1.6,2.9,1.9v22.8H1.6c-0.3,0-0.7,0.1-0.9,0.4
	c-0.2,0.3-0.4,0.6-0.4,0.9c0,0.4,0.1,0.7,0.4,0.9c0.2,0.3,0.6,0.4,0.9,0.4h5.3c0.3,0,0.7-0.1,0.9-0.4c0.2-0.3,0.4-0.6,0.4-0.9
	c0-0.4-0.1-0.7-0.4-0.9s-0.6-0.4-0.9-0.4H5.5v-9.4h15.8c0.2,0,0.5-0.1,0.7-0.2c0.2-0.1,0.4-0.3,0.5-0.5c0.1-0.2,0.2-0.5,0.1-0.7
	c0-0.2-0.1-0.5-0.3-0.7L19,8.6z M16.3,9.4l2.4,3.2H5.5V4.6h13.2l-2.4,3.2c-0.2,0.2-0.3,0.5-0.3,0.8C16.1,8.9,16.1,9.2,16.3,9.4z"/>
</svg>
